source/assets/img/rtr_logo.svg

<?xml version="1.0" encoding="UTF-8" standalone="no"?>
<svg width="24px" height="16px" viewBox="0 0 24 16" version="1.1" xmlns="http://www.w3.org/2000/svg" xmlns:xlink="http://www.w3.org/1999/xlink">
    <!-- Generator: Sketch 43.2 (39069) - http://www.bohemiancoding.com/sketch -->
    <title>RTR-RGB v8</title>
    <desc>Created with Sketch.</desc>
    <defs></defs>
    <g id="--ELEMENTS" stroke="none" stroke-width="1" fill="none" fill-rule="evenodd">
        <g id="srf-app-article-element-comments" transform="translate(-304.000000, -1381.000000)">
            <g id="Group" transform="translate(32.000000, 154.000000)">
                <g id="RTR-RGB-v8" transform="translate(272.000000, 1227.000000)">
                    <polygon id="Fill-1" fill="#AF001E" points="0 16 24 16 24 0 0 0"></polygon>
                    <path d="M5.33194126,8.0547009 L5.21924621,8.52778166 C5.18552814,8.66312355 5.17420436,8.73064958 5.17420436,8.77567902 C5.17420436,8.88827071 5.20835657,8.97829336 5.28700795,9.11363524 L6.62596267,11.5252277 C6.73836829,11.7168654 6.82859669,11.7953318 7.09866686,11.7953318 L8.32514359,11.7953318 C8.48280814,11.7953318 8.67390132,11.6940066 8.49402337,11.4123462 L6.85099099,8.68562015 C7.40241892,8.33636128 8.02135535,7.84053034 8.02135535,6.74739826 C8.02135535,5.33916883 7.23353915,4.55004883 5.50060397,4.55004883 L2.9914296,4.55004883 C2.76622039,4.55004883 2.69849482,4.62913109 2.69849482,4.85427826 L2.69849482,11.4911386 C2.69849482,11.7168654 2.76622039,11.7953318 2.9914296,11.7953318 L4.02648755,11.7953318 C4.25184147,11.7953318 4.31938615,11.7168654 4.31938615,11.4911386 L4.31938615,5.89104204 L5.38819834,5.89104204 C6.06321096,5.89104204 6.38957439,6.13901185 6.38957439,6.7702209 C6.38957439,7.34462694 6.13075564,7.52503449 5.87211778,7.63758996 C5.5458267,7.77296807 5.43305929,7.62635977 5.33194126,8.0547009" id="Fill-2" fill="#FFFFFF"></path>
                    <path d="M18.1708564,8.0547009 L18.0581975,8.52778166 C18.0244433,8.66312355 18.0131195,8.73064958 18.0131195,8.77567902 C18.0131195,8.88827071 18.0472717,8.97829336 18.1259231,9.11363524 L19.4648416,11.5252277 C19.5772834,11.7168654 19.6675118,11.7953318 19.9376182,11.7953318 L21.1640949,11.7953318 C21.3217595,11.7953318 21.5128165,11.6940066 21.3329747,11.4123462 L19.6899061,8.68562015 C20.2413702,8.33636128 20.8602705,7.84053034 20.8602705,6.74739826 C20.8602705,5.33916883 20.0724543,4.55004883 18.3395191,4.55004883 L15.8303447,4.55004883 C15.6051717,4.55004883 15.53741,4.62913109 15.53741,4.85427826 L15.53741,11.4911386 C15.53741,11.7168654 15.6051717,11.7953318 15.8303447,11.7953318 L16.8654027,11.7953318 C17.0907928,11.7953318 17.1582651,11.7168654 17.1582651,11.4911386 L17.1582651,5.89104204 L18.2271135,5.89104204 C18.9021261,5.89104204 19.2284895,6.13901185 19.2284895,6.7702209 C19.2284895,7.34462694 18.9696708,7.52503449 18.7110329,7.63758996 C18.3847418,7.77296807 18.2720106,7.62635977 18.1708564,8.0547009" id="Fill-3" fill="#FFFFFF"></path>
                    <path d="M10.800419,11.4911386 C10.800419,11.7168654 10.867819,11.7953318 11.0928835,11.7953318 L12.1283394,11.7953318 C12.3534762,11.7953318 12.4208762,11.7168654 12.4208762,11.4911386 L12.4208762,5.92509487 L14.3340511,5.92509487 C14.5591156,5.92509487 14.6265156,5.84604883 14.6265156,5.62090166 L14.6265156,4.85427826 C14.6265156,4.62913109 14.5591156,4.55004883 14.3340511,4.55004883 L8.88753352,4.55004883 C8.66214341,4.55004883 8.59467109,4.62913109 8.59467109,4.85427826 L8.59467109,5.62090166 C8.59467109,5.84604883 8.66214341,5.92509487 8.88753352,5.92509487 L10.800419,5.92509487 L10.800419,11.4911386" id="Fill-4" fill="#FFFFFF"></path>
                </g>
            </g>
        </g>
    </g>
</svg>

<svg width="24" height="16" viewBox="0 0 24 16" xmlns="http://www.w3.org/2000/svg"><g fill="none" fill-rule="evenodd"><path fill="#AF001E" d="M0 16h24V0H0z"/><path d="M5.332 8.055l-.113.473a1.147 1.147 0 0 0-.045.248c0 .112.034.202.113.338l1.339 2.411c.112.192.203.27.473.27h1.226c.158 0 .349-.101.169-.383L6.851 8.686c.551-.35 1.17-.845 1.17-1.939 0-1.408-.787-2.197-2.52-2.197H2.99c-.225 0-.293.08-.293.304v6.637c0 .226.068.304.293.304h1.035c.226 0 .293-.078.293-.304v-5.6h1.07c.674 0 1 .248 1 .88 0 .574-.258.754-.517.867-.326.135-.439-.012-.54.417m12.839 0l-.112.473a1.146 1.146 0 0 0-.045.248c0 .112.034.202.113.338l1.339 2.411c.112.192.203.27.473.27h1.226c.158 0 .349-.101.169-.383L19.69 8.686c.551-.35 1.17-.845 1.17-1.939 0-1.408-.788-2.197-2.52-2.197h-2.51c-.225 0-.293.08-.293.304v6.637c0 .226.068.304.293.304h1.035c.226 0 .293-.078.293-.304v-5.6h1.07c.674 0 1 .248 1 .88 0 .574-.258.754-.517.867-.326.135-.439-.012-.54.417M10.8 11.491c0 .226.068.304.293.304h1.035c.225 0 .293-.078.293-.304V5.925h1.913c.225 0 .293-.079.293-.304v-.767c0-.225-.068-.304-.293-.304H8.888c-.226 0-.293.08-.293.304v.767c0 .225.067.304.293.304H10.8v5.566" fill="#FFF"/></g></svg>
